app/dist/common/images/tsi-co-ltd.svg

<svg height="18" viewBox="0 0 18 18" width="18" xmlns="http://www.w3.org/2000/svg"><path d="m0 0h18v18h-18z" fill="#f0f3fa"/><path d="m14 4-1.84 1.1 1.84 1.1zm0 8.8-1.84-1.1 1.84-1.1zm-7.33-8.8-1.84 1.1 1.84 1.1 1.83-1.1z" fill="#a1a2a3"/><path d="m10.33 4-1.83 1.1 1.83 1.1 1.84-1.1z" fill="#a1a2a3"/><path d="m14 10.6-1.83-1.1-1.84 1.1 1.84 1.1zm-5.5-3.3-1.83-1.1-1.84 1.1 1.84 1.1zm5.5 5.5-1.83-1.1-1.84 1.1 1.84 1.1zm-5.5-1.1-1.84-1.1-1.83 1.1 1.83 1.1z" fill="#474645"/><path d="m10.33 6.2-1.83-1.1-1.84 1.1 1.84 1.1zm0 2.2-1.83-1.1-1.84 1.1 1.84 1.1zm0 2.2-1.83-1.1-1.84 1.1 1.84 1.1z" fill="#dddede"/><path d="m12.17 9.5-1.84-1.1-1.83 1.1 1.83 1.1zm-3.67 0-1.83-1.1-1.84 1.1 1.84 1.1zm0 4.4 1.83 1.1 1.84-1.1-1.84-1.1zm-3.67 0 1.84 1.1 1.83-1.1-1.83-1.1z" fill="#a1a2a3"/><path d="m10.33 12.8-1.83-1.1-1.84 1.1 1.84 1.1z" fill="#dddede"/><path d="m14 6.2-1.83-1.1-1.84 1.1 1.84 1.1z" fill="#474645"/><path d="m3 4v2.2l1.83-1.1z" fill="#a1a2a3"/></svg>

<!-- by TradingView --><svg width="18" height="18" viewBox="0 0 18 18" xmlns="http://www.w3.org/2000/svg"><path fill="#F0F3FA" d="M0 0h18v18H0z"/><path d="m14 4-1.84 1.1L14 6.2V4ZM14 12.8l-1.84-1.1L14 10.6v2.2ZM6.67 4 4.83 5.1l1.84 1.1L8.5 5.1 6.67 4Z" fill="#A1A2A3"/><path d="M10.33 4 8.5 5.1l1.83 1.1 1.84-1.1L10.33 4Z" fill="#A1A2A3"/><path d="m14 10.6-1.83-1.1-1.84 1.1 1.84 1.1L14 10.6ZM8.5 7.3 6.67 6.2 4.83 7.3l1.84 1.1L8.5 7.3ZM14 12.8l-1.83-1.1-1.84 1.1 1.84 1.1L14 12.8ZM8.5 11.7l-1.84-1.1-1.83 1.1 1.83 1.1 1.84-1.1Z" fill="#474645"/><path d="M10.33 6.2 8.5 5.1 6.66 6.2 8.5 7.3l1.83-1.1ZM10.33 8.4 8.5 7.3 6.66 8.4 8.5 9.5l1.83-1.1ZM10.33 10.6 8.5 9.5l-1.84 1.1 1.84 1.1 1.83-1.1Z" fill="#DDDEDE"/><path d="m12.17 9.5-1.84-1.1L8.5 9.5l1.83 1.1 1.84-1.1ZM8.5 9.5 6.67 8.4 4.83 9.5l1.84 1.1L8.5 9.5ZM8.5 13.9l1.83 1.1 1.84-1.1-1.84-1.1-1.83 1.1ZM4.83 13.9 6.67 15l1.83-1.1-1.83-1.1-1.84 1.1Z" fill="#A1A2A3"/><path d="M10.33 12.8 8.5 11.7l-1.84 1.1 1.84 1.1 1.83-1.1Z" fill="#DDDEDE"/><path d="m14 6.2-1.83-1.1-1.84 1.1 1.84 1.1L14 6.2Z" fill="#474645"/><path d="M3 4v2.2l1.83-1.1L3 4Z" fill="#A1A2A3"/></svg>
